src/images_karasa_jaga_svg/cmd/lc_arrowshapes.quad-arrow.svg

<svg height="24" viewBox="0 0 24 24" width="24" xmlns="http://www.w3.org/2000/svg" xmlns:xlink="http://www.w3.org/1999/xlink"><linearGradient id="a"><stop offset="0" stop-color="#fff"/><stop offset=".625" stop-color="#fff"/><stop offset=".78125" stop-color="#f1f1f1"/><stop offset=".90625" stop-color="#eaeaea"/><stop offset="1" stop-color="#dfdfdf"/></linearGradient><linearGradient id="b"><stop offset="0" stop-color="#7c9fcf"/><stop offset=".5" stop-color="#7c9ece"/><stop offset="1" stop-color="#7b9dcf"/></linearGradient><linearGradient id="c" gradientTransform="matrix(.42447771 0 0 .25739099 19.46596 52.442994)" gradientUnits="userSpaceOnUse" x1="102.34156" x2="102.34156" xlink:href="#a" y1="208.78667" y2="-39.862289"/><linearGradient id="d" gradientTransform="matrix(-1 0 0 1 133.81654 -.000534)" gradientUnits="userSpaceOnUse" x1="5.566406" x2="130.19847" xlink:href="#b" y1="66.726799" y2="66.726799"/><linearGradient id="e" gradientTransform="matrix(0 -1 -1 0 133.80045 133.7995)" gradientUnits="userSpaceOnUse" x1="5.566406" x2="130.19847" xlink:href="#b" y1="66.726799" y2="66.726799"/><linearGradient id="f" gradientTransform="matrix(0 .42447771 -.25739099 0 81.375106 19.46866)" gradientUnits="userSpaceOnUse" x1="255.68207" x2="-45.860737" xlink:href="#a" y1="44.904083" y2="44.904083"/><g fill-rule="evenodd" transform="matrix(.171875 0 0 .171875 .000183 -.000275)"><path d="m96.325305 99.981011c.0026-.252707-.0088-.503454-.03125-.75-.05978-.657457-.208032-1.287489-.439453-1.851563-.438314-1.068355-1.185048-2.083079-2.175782-2.863281-1.093482-.883901-2.49397-1.443359-4.164062-1.443359h-8.080078v-24.779297-6.964844-20.619141h8.080078c1.670092 0 3.07058-.559457 4.164062-1.443359.990734-.780202 1.737468-1.794926 2.175782-2.863281.231421-.564074.379669-1.194106.439453-1.851563.05868-.645307.02339-1.317743-.0918-1.984375-.01387-.0914-.02549-.182547-.04297-.273437-.01075-.0512-.02724-.101286-.03906-.152344-.09995-.463436-.249954-.91516-.447265-1.353515-.09323-.207122-.198798-.408615-.314453-.607422-.04419-.07735-.09135-.152842-.138672-.228516-.09428-.147845-.187445-.295693-.294922-.4375-.179253-.240798-.372643-.472255-.587891-.6875l-23.255858-23.2578126h-.002c-1.257683-1.2572-2.950126-1.9417037-4.644531-1.9648437a5.8186923 5.8186923 0 0 1 -.002 0c-.08849-.00119-.151919-.013319-.566406.019531-.103622.00821-.234582.018161-.443359.050781s-1.042416.2634819-1.042969.2636719c-.000276.0001-1.183424.5760719-1.183594.5761719-.000084.00006-.921816.7265025-.921875.7265625-.000058.00005-1.060513 1.3925281-1.060547 1.3925781-.000008.00002-.114525.3662113-.191406.6132813l-21.232329 21.2324226c-1.418923 1.418918-1.989936 3.390277-1.966796 5.195312.0093.722015.113395 1.418332.296874 2.041016.09174.311342.20279.603799.332032.873047.258482.538496.575282 1.06906.958984 1.560547.191851.245743.40026.48052.626953.703125.122806.120642.264869.225757.398438.33789.112933.09481.215062.199179.335937.28711.000441.00032.0015-.000321.002 0 .263895.191873.546157.365979.84961.519531.910357.460658 2.003665.731813 3.3125.710937l-.09375.002h7.501953v20.619141 6.964844 24.779297h-7.501953l.09375.002c-.436274-.007-.848639.01813-1.238281.07227-.77929.108273-1.467315.331567-2.074219.638672-.606906.307104-1.132549.699322-1.585938 1.144532-.226693.222604-.435102.457381-.626953.703125-.383704.491489-.700502 1.022044-.958984 1.560547-.129241.269247-.240292.561704-.332032.873046-.183478.622689-.28762 1.319001-.296874 2.041013-.02314 1.80505.547881 3.77641 1.966796 5.19532l21.232422 21.23242c.07688.24707.191397.61327.191406.61329.000034.00005 1.060489 1.39251 1.060547 1.39257.000059.00005.921791.7265.921875.72657.00017.0001 1.183318.57607 1.183594.57617.000553.00019.834192.23105 1.042969.26366.208777.0326.339737.0426.443359.0508.414487.0328.47792.0207.566406.0195a5.8186923 5.8186923 0 0 0 .002 0c1.694405-.0231 3.386848-.70764 4.644531-1.96485h.002l23.255719-23.2579c.215601-.21559.408403-.44822.587891-.68945.101929-.13456.191202-.27407.28125-.41407.05592-.0886.112473-.17663.164062-.26757.11146-.19302.212349-.38904.302735-.58984.18415-.40912.322654-.83028.421875-1.26172.02157-.0882.04803-.17505.06641-.26367.01416-.0748.02538-.14947.03711-.22461.07449-.42152.122654-.84532.126953-1.263679z" fill="url(#e)"/><path d="m99.998047 37.474609c-.252707-.0026-.503454.0088-.75.03125-.657457.05978-1.287489.208032-1.851563.439453-1.068355.438314-2.083079 1.185048-2.863281 2.175782-.883901 1.093482-1.443359 2.49397-1.443359 4.164062v8.080078h-24.779297-6.964844-20.619141v-8.080078c0-1.670092-.559457-3.07058-1.443359-4.164062-.780202-.990734-1.794926-1.737468-2.863281-2.175782-.564074-.231421-1.194106-.379669-1.851563-.439453-.645307-.05868-1.317743-.02339-1.984375.0918-.0914.01387-.182547.02549-.273437.04297-.0512.01075-.101286.02724-.152344.03906-.463436.09995-.91516.249954-1.353515.447265-.207122.09323-.408615.198798-.607422.314453-.07735.04419-.152842.09134-.228516.138672-.147845.09428-.295693.187445-.4375.294922-.240798.179253-.472255.372643-.6875.587891l-23.2578125 23.255858v.002c-1.2572 1.257683-1.9417037 2.950126-1.9648437 4.644531a5.8186923 5.8186923 0 0 1 0 .002c-.00119.08849-.013319.151919.019531.566406.00821.103622.018161.234582.050781.443359s.2634819 1.042416.2636719 1.042969c.0001.000276.5760719 1.183424.5761719 1.183594.00006.000084.7265025.921816.7265625.921875.00005.000058 1.3925281 1.060513 1.3925781 1.060547.00002.000008.3662113.114525.6132813.191406l21.2324225 21.232329c1.418918 1.418923 3.390277 1.989936 5.195312 1.966796.722015-.0093 1.418332-.113395 2.041016-.296874.311342-.09174.603799-.20279.873047-.332032.538496-.258482 1.06906-.575282 1.560547-.958984.245743-.191851.48052-.40026.703125-.626953.120642-.122806.225757-.264869.33789-.398438.09481-.112933.199179-.215062.28711-.335937.00032-.000441-.000321-.0015 0-.002.191873-.263895.365979-.546157.519531-.84961.460658-.910357.731813-2.003665.710937-3.3125l.002.09375v-7.501953h20.619141 6.964844 24.779297v7.501953l.002-.09375c-.007.436274.01813.848639.07227 1.238281.108273.77929.331567 1.467315.638672 2.074219.307104.606906.699322 1.132549 1.144532 1.585938.222604.226693.457381.435102.703125.626953.491489.383704 1.022044.700502 1.560547.958984.269247.129241.561704.240292.873046.332032.622689.183478 1.319001.28762 2.041017.296874 1.80504.02314 3.77641-.547881 5.19531-1.966796l21.23242-21.232422c.24707-.07688.61327-.191397.61329-.191406.00005-.000034 1.39252-1.060489 1.39257-1.060547.00006-.000059.72651-.921791.72657-.921875.0001-.00017.57607-1.183318.57617-1.183594.00019-.000553.23105-.834192.26367-1.042969.0326-.208777.0426-.339737.0508-.443359.0328-.414487.0207-.47792.0195-.566406a5.8186923 5.8186923 0 0 0 0-.002c-.0231-1.694405-.70764-3.386848-1.96484-4.644531v-.002l-23.2579-23.255719c-.2156-.215601-.44823-.408403-.68946-.587891-.13455-.101929-.27406-.191202-.41406-.28125-.0886-.05592-.17663-.112473-.26758-.164062-.19301-.11146-.38904-.212349-.58984-.302735-.40912-.18415-.83028-.322654-1.26172-.421875-.0882-.02157-.17505-.04803-.26367-.06641-.0748-.01416-.14947-.02538-.22461-.03711-.42152-.07449-.84532-.122654-1.263673-.126953z" fill="url(#d)"/><path d="m124.37645 67.444519c-.003-.219639-.0896-.441178-.25977-.611328l-23.25781-23.257812c-.74183-.741828-1.95117-.154145-1.95117.708984v13.898437h-33.402344-4.160156-26.43753v-13.898437c0-.863129-1.20935-1.450812-1.95117-.708984l-23.25782 23.257812c-.3403.3403-.34722-.193708-.0195.133988l22.92969 22.929687c.86213.862133 2.313835.0013 2.29883-.939453v-13.320313h26.4375 4.160156 33.402344v13.320313c-.01501.940773 1.4367 1.801586 2.29883.939453l22.92968-22.929687c.16385-.163848.24319.696979.24024.47734z" fill="url(#c)"/><path d="m66.373581 124.37914c.219639-.003.441178-.0896.611328-.25977l23.257812-23.2578c.741828-.74183.154145-1.95117-.708984-1.95117h-13.898437v-33.402344-4.160156-26.43753h13.898437c.863129 0 1.450812-1.20935.708984-1.95117l-23.257812-23.2578203c-.3403-.3403.193708-.34722-.133988-.0195l-22.929687 22.9296903c-.862133.86213-.0013 2.313835.939453 2.29883h13.320313v26.4375 4.160156 33.402344h-13.320313c-.940773-.01501-1.801586 1.43669-.939453 2.29882l22.929687 22.92968c.163848.16385-.696979.24319-.47734.24024z" fill="url(#f)"/></g></svg>

<?xml version="1.0" encoding="UTF-8" standalone="no"?>
<!-- Created with Inkscape (http://www.inkscape.org/) -->

<svg
   xmlns:dc="http://purl.org/dc/elements/1.1/"
   xmlns:cc="http://creativecommons.org/ns#"
   xmlns:rdf="http://www.w3.org/1999/02/22-rdf-syntax-ns#"
   xmlns:svg="http://www.w3.org/2000/svg"
   xmlns="http://www.w3.org/2000/svg"
   xmlns:xlink="http://www.w3.org/1999/xlink"
   xmlns:sodipodi="http://sodipodi.sourceforge.net/DTD/sodipodi-0.dtd"
   xmlns:inkscape="http://www.inkscape.org/namespaces/inkscape"
   version="1.1"
   id="svg2"
   width="128"
   height="128"
   viewBox="0 0 128 128"
   sodipodi:docname="lc_arrowshapes.quad-arrow.svg"
   inkscape:export-filename="/home/rizmut/Dokumen/Rizmut/Github/libreoffice-style-karasa-jaga/build/images_karasa_jaga/cmd/lc_arrowshapes.quad-arrow.png"
   inkscape:export-xdpi="16.5"
   inkscape:export-ydpi="16.5"
   inkscape:version="0.92.3 (unknown)">
  <metadata
     id="metadata8">
    <rdf:RDF>
      <cc:Work
         rdf:about="">
        <dc:format>image/svg+xml</dc:format>
        <dc:type
           rdf:resource="http://purl.org/dc/dcmitype/StillImage" />
        <dc:title></dc:title>
      </cc:Work>
    </rdf:RDF>
  </metadata>
  <defs
     id="defs6">
    <inkscape:perspective
       id="perspective27"
       inkscape:persp3d-origin="64 : 42.666667 : 1"
       inkscape:vp_z="128 : 64 : 1"
       inkscape:vp_y="0 : 1000 : 0"
       inkscape:vp_x="0 : 64 : 1"
       sodipodi:type="inkscape:persp3d" />
    <linearGradient
       id="linearGradient3369">
      <stop
         id="stop3372"
         offset="0"
         style="stop-color:#ffffff;stop-opacity:1;" />
      <stop
         style="stop-color:#ffffff;stop-opacity:1;"
         offset="0.625"
         id="stop3374" />
      <stop
         style="stop-color:#f1f1f1;stop-opacity:1;"
         offset="0.78125"
         id="stop3376" />
      <stop
         id="stop3378"
         offset="0.90625"
         style="stop-color:#eaeaea;stop-opacity:1;" />
      <stop
         id="stop3384"
         offset="1"
         style="stop-color:#dfdfdf;stop-opacity:1;" />
    </linearGradient>
    <linearGradient
       id="linearGradient7422">
      <stop
         style="stop-color:#7c9fcf;stop-opacity:1"
         offset="0"
         id="stop7424" />
      <stop
         id="stop5348"
         offset="0.5"
         style="stop-color:#7c9ece;stop-opacity:1" />
      <stop
         id="stop7426"
         offset="1"
         style="stop-color:#7b9dcf;stop-opacity:1" />
    </linearGradient>
    <linearGradient
       y2="388.95178"
       x2="399.77466"
       y1="1324.7792"
       x1="405.94968"
       gradientTransform="matrix(0.08097132,0,0,0.07807154,182.74486,-6.9021226)"
       gradientUnits="userSpaceOnUse"
       id="linearGradient2330"
       xlink:href="#linearGradient7422"
       inkscape:collect="always" />
    <linearGradient
       y2="-39.862289"
       x2="102.34156"
       y1="208.78667"
       x1="102.34156"
       gradientTransform="matrix(0.42447771,0,0,0.25739099,19.46596,52.442994)"
       gradientUnits="userSpaceOnUse"
       id="linearGradient2360"
       xlink:href="#linearGradient3369"
       inkscape:collect="always" />
    <linearGradient
       inkscape:collect="always"
       xlink:href="#linearGradient7422"
       id="linearGradient875"
       gradientUnits="userSpaceOnUse"
       x1="5.5664062"
       y1="66.726799"
       x2="130.19847"
       y2="66.726799"
       gradientTransform="matrix(-1,0,0,1,133.81654,-5.34e-4)" />
    <linearGradient
       inkscape:collect="always"
       xlink:href="#linearGradient7422"
       id="linearGradient882"
       gradientUnits="userSpaceOnUse"
       gradientTransform="matrix(0,-1,-1,0,133.80045,133.7995)"
       x1="5.5664062"
       y1="66.726799"
       x2="130.19847"
       y2="66.726799" />
    <linearGradient
       inkscape:collect="always"
       xlink:href="#linearGradient3369"
       id="linearGradient884"
       gradientUnits="userSpaceOnUse"
       gradientTransform="matrix(0,0.42447771,-0.25739099,0,81.375106,19.46866)"
       x1="255.68207"
       y1="44.904083"
       x2="-45.860737"
       y2="44.904083" />
  </defs>
  <sodipodi:namedview
     pagecolor="#ffffff"
     bordercolor="#666666"
     borderopacity="1"
     objecttolerance="10"
     gridtolerance="10"
     guidetolerance="10"
     inkscape:pageopacity="0"
     inkscape:pageshadow="2"
     inkscape:window-width="1366"
     inkscape:window-height="706"
     id="namedview4"
     showgrid="true"
     inkscape:snap-page="true"
     inkscape:snap-global="true"
     inkscape:zoom="2"
     inkscape:cx="129.80904"
     inkscape:cy="82.068406"
     inkscape:window-x="0"
     inkscape:window-y="0"
     inkscape:window-maximized="1"
     inkscape:current-layer="svg2"
     showguides="false">
    <inkscape:grid
       type="xygrid"
       id="grid837"
       spacingx="5.8181"
       spacingy="5.8181"
       empspacing="1" />
  </sodipodi:namedview>
  <path
     id="path878"
     d="m 96.325305,99.981011 c 0.0026,-0.252707 -0.0088,-0.503454 -0.03125,-0.75 -0.05978,-0.657457 -0.208032,-1.287489 -0.439453,-1.851563 -0.438314,-1.068355 -1.185048,-2.083079 -2.175782,-2.863281 -1.093482,-0.883901 -2.49397,-1.443359 -4.164062,-1.443359 H 81.43468 V 68.293511 61.328667 40.709526 h 8.080078 c 1.670092,0 3.07058,-0.559457 4.164062,-1.443359 0.990734,-0.780202 1.737468,-1.794926 2.175782,-2.863281 0.231421,-0.564074 0.379669,-1.194106 0.439453,-1.851563 0.05868,-0.645307 0.02339,-1.317743 -0.0918,-1.984375 -0.01387,-0.0914 -0.02549,-0.182547 -0.04297,-0.273437 -0.01075,-0.0512 -0.02724,-0.101286 -0.03906,-0.152344 -0.09995,-0.463436 -0.249954,-0.91516 -0.447265,-1.353515 -0.09323,-0.207122 -0.198798,-0.408615 -0.314453,-0.607422 -0.04419,-0.07735 -0.09135,-0.152842 -0.138672,-0.228516 -0.09428,-0.147845 -0.187445,-0.295693 -0.294922,-0.4375 -0.179253,-0.240798 -0.372643,-0.472255 -0.587891,-0.6875 L 71.081164,5.5689014 h -0.002 c -1.257683,-1.2572 -2.950126,-1.9417037 -4.644531,-1.9648437 a 5.8186923,5.8186923 0 0 1 -0.002,0 c -0.08849,-0.00119 -0.151919,-0.013319 -0.566406,0.019531 -0.103622,0.00821 -0.234582,0.018161 -0.443359,0.050781 -0.208777,0.03262 -1.042416,0.2634819 -1.042969,0.2636719 -2.76e-4,10e-5 -1.183424,0.5760719 -1.183594,0.5761719 -8.4e-5,6e-5 -0.921816,0.7265025 -0.921875,0.7265625 -5.8e-5,5e-5 -1.060513,1.3925281 -1.060547,1.3925781 -8e-6,2e-5 -0.114525,0.3662113 -0.191406,0.6132813 L 39.790148,28.479058 c -1.418923,1.418918 -1.989936,3.390277 -1.966796,5.195312 0.0093,0.722015 0.113395,1.418332 0.296874,2.041016 0.09174,0.311342 0.20279,0.603799 0.332032,0.873047 0.258482,0.538496 0.575282,1.06906 0.958984,1.560547 0.191851,0.245743 0.40026,0.48052 0.626953,0.703125 0.122806,0.120642 0.264869,0.225757 0.398438,0.33789 0.112933,0.09481 0.215062,0.199179 0.335937,0.28711 4.41e-4,3.2e-4 0.0015,-3.21e-4 0.002,0 0.263895,0.191873 0.546157,0.365979 0.84961,0.519531 0.910357,0.460658 2.003665,0.731813 3.3125,0.710937 l -0.09375,0.002 h 7.501953 v 20.619141 6.964844 24.779297 H 44.84293 l 0.09375,0.002 c -0.436274,-0.007 -0.848639,0.01813 -1.238281,0.07227 -0.77929,0.108273 -1.467315,0.331567 -2.074219,0.638672 -0.606906,0.307104 -1.132549,0.699322 -1.585938,1.144532 -0.226693,0.222604 -0.435102,0.457381 -0.626953,0.703125 -0.383704,0.491489 -0.700502,1.022044 -0.958984,1.560547 -0.129241,0.269247 -0.240292,0.561704 -0.332032,0.873046 -0.183478,0.622689 -0.28762,1.319001 -0.296874,2.041013 -0.02314,1.80505 0.547881,3.77641 1.966796,5.19532 l 21.232422,21.23242 c 0.07688,0.24707 0.191397,0.61327 0.191406,0.61329 3.4e-5,5e-5 1.060489,1.39251 1.060547,1.39257 5.9e-5,5e-5 0.921791,0.7265 0.921875,0.72657 1.7e-4,1e-4 1.183318,0.57607 1.183594,0.57617 5.53e-4,1.9e-4 0.834192,0.23105 1.042969,0.26366 0.208777,0.0326 0.339737,0.0426 0.443359,0.0508 0.414487,0.0328 0.47792,0.0207 0.566406,0.0195 a 5.8186923,5.8186923 0 0 0 0.002,0 c 1.694405,-0.0231 3.386848,-0.70764 4.644531,-1.96485 h 0.002 l 23.255719,-23.2579 c 0.215601,-0.21559 0.408403,-0.44822 0.587891,-0.68945 0.101929,-0.13456 0.191202,-0.27407 0.28125,-0.41407 0.05592,-0.0886 0.112473,-0.17663 0.164062,-0.26757 0.11146,-0.19302 0.212349,-0.38904 0.302735,-0.58984 0.18415,-0.40912 0.322654,-0.83028 0.421875,-1.26172 0.02157,-0.0882 0.04803,-0.17505 0.06641,-0.26367 0.01416,-0.0748 0.02538,-0.14947 0.03711,-0.22461 0.07449,-0.42152 0.122654,-0.84532 0.126953,-1.263679 z"
     style="fill:url(#linearGradient882);fill-opacity:1;fill-rule:evenodd;stroke:none;stroke-width:4.6329999;stroke-linecap:round;stroke-linejoin:round;stroke-miterlimit:4;stroke-dasharray:none;stroke-opacity:1"
     inkscape:connector-curvature="0" />
  <path
     style="fill:url(#linearGradient875);fill-opacity:1;fill-rule:evenodd;stroke:none;stroke-width:4.6329999;stroke-linecap:round;stroke-linejoin:round;stroke-miterlimit:4;stroke-dasharray:none;stroke-opacity:1"
     d="M 99.998047 37.474609 C 99.74534 37.472013 99.494593 37.48344 99.248047 37.505859 C 98.59059 37.565643 97.960558 37.713891 97.396484 37.945312 C 96.328129 38.383626 95.313405 39.13036 94.533203 40.121094 C 93.649302 41.214576 93.089844 42.615064 93.089844 44.285156 L 93.089844 52.365234 L 68.310547 52.365234 L 61.345703 52.365234 L 40.726562 52.365234 L 40.726562 44.285156 C 40.726562 42.615064 40.167105 41.214576 39.283203 40.121094 C 38.503001 39.13036 37.488277 38.383626 36.419922 37.945312 C 35.855848 37.713891 35.225816 37.565643 34.568359 37.505859 C 33.923052 37.44718 33.250616 37.482469 32.583984 37.597656 C 32.492584 37.611529 32.401437 37.623149 32.310547 37.640625 C 32.259345 37.651379 32.209261 37.667868 32.158203 37.679688 C 31.694767 37.779636 31.243043 37.929642 30.804688 38.126953 C 30.597566 38.220182 30.396073 38.325751 30.197266 38.441406 C 30.119912 38.485592 30.044424 38.532751 29.96875 38.580078 C 29.820905 38.674359 29.673057 38.767523 29.53125 38.875 C 29.290452 39.054253 29.058995 39.247643 28.84375 39.462891 L 5.5859375 62.71875 L 5.5859375 62.720703 C 4.3287375 63.978386 3.6442338 65.670829 3.6210938 67.365234 A 5.8186923 5.8186923 0 0 1 3.6210938 67.367188 C 3.6199038 67.455673 3.607775 67.519107 3.640625 67.933594 C 3.648835 68.037216 3.6587862 68.168176 3.6914062 68.376953 C 3.7240263 68.58573 3.9548881 69.419369 3.9550781 69.419922 C 3.9551781 69.420198 4.53115 70.603346 4.53125 70.603516 C 4.53131 70.6036 5.2577525 71.525332 5.2578125 71.525391 C 5.2578625 71.525449 6.6503406 72.585904 6.6503906 72.585938 C 6.6504106 72.585946 7.0166019 72.700463 7.2636719 72.777344 L 28.496094 94.009766 C 29.915012 95.428689 31.886371 95.999702 33.691406 95.976562 C 34.413421 95.967307 35.109738 95.863167 35.732422 95.679688 C 36.043764 95.587948 36.336221 95.476898 36.605469 95.347656 C 37.143965 95.089174 37.674529 94.772374 38.166016 94.388672 C 38.411759 94.196821 38.646536 93.988412 38.869141 93.761719 C 38.989783 93.638913 39.094898 93.49685 39.207031 93.363281 C 39.301841 93.250348 39.40621 93.148219 39.494141 93.027344 C 39.494461 93.026903 39.49382 93.025832 39.494141 93.025391 C 39.686014 92.761496 39.86012 92.479234 40.013672 92.175781 C 40.47433 91.265424 40.745485 90.172116 40.724609 88.863281 L 40.726562 88.957031 L 40.726562 81.455078 L 61.345703 81.455078 L 68.310547 81.455078 L 93.089844 81.455078 L 93.089844 88.957031 L 93.091797 88.863281 C 93.084836 89.299555 93.109928 89.71192 93.164062 90.101562 C 93.272335 90.880852 93.495629 91.568877 93.802734 92.175781 C 94.109838 92.782687 94.502056 93.30833 94.947266 93.761719 C 95.16987 93.988412 95.404647 94.196821 95.650391 94.388672 C 96.14188 94.772376 96.672435 95.089174 97.210938 95.347656 C 97.480185 95.476897 97.772642 95.587948 98.083984 95.679688 C 98.706673 95.863166 99.402985 95.967308 100.125 95.976562 C 101.93004 95.999699 103.90141 95.428681 105.32031 94.009766 L 126.55273 72.777344 C 126.7998 72.700463 127.166 72.585947 127.16602 72.585938 C 127.16607 72.585904 128.55854 71.525449 128.55859 71.525391 C 128.55865 71.525332 129.2851 70.6036 129.28516 70.603516 C 129.28526 70.603346 129.86123 69.420198 129.86133 69.419922 C 129.86152 69.419369 130.09238 68.58573 130.125 68.376953 C 130.15762 68.168176 130.16757 68.037216 130.17578 67.933594 C 130.20863 67.519107 130.1965 67.455674 130.19531 67.367188 A 5.8186923 5.8186923 0 0 0 130.19531 67.365234 C 130.17217 65.670829 129.48767 63.978386 128.23047 62.720703 L 128.23047 62.71875 L 104.97266 39.462891 C 104.75706 39.24729 104.52443 39.054488 104.2832 38.875 C 104.14865 38.773071 104.00914 38.683798 103.86914 38.59375 C 103.78051 38.537832 103.69251 38.481277 103.60156 38.429688 C 103.40855 38.318228 103.21252 38.217339 103.01172 38.126953 C 102.6026 37.942803 102.18144 37.804299 101.75 37.705078 C 101.66183 37.683509 101.57495 37.657049 101.48633 37.638672 C 101.41153 37.624509 101.33686 37.613287 101.26172 37.601562 C 100.8402 37.527068 100.4164 37.478908 99.998047 37.474609 z "
     id="path873" />
  <path
     inkscape:connector-curvature="0"
     id="rect2326"
     d="m 124.37645,67.444519 c -0.003,-0.219639 -0.0896,-0.441178 -0.25977,-0.611328 L 100.85887,43.575379 C 100.11704,42.833551 98.9077,43.421234 98.9077,44.284363 V 58.1828 l -33.402344,0 H 61.3452 34.90767 V 44.284363 c 0,-0.863129 -1.20935,-1.450812 -1.95117,-0.708984 L 9.69868,66.833191 c -0.3403,0.3403 -0.34722,-0.193708 -0.0195,0.133988 l 22.92969,22.929687 c 0.86213,0.862133 2.313835,0.0013 2.29883,-0.939453 V 75.6371 H 61.3452 65.505356 98.9077 v 13.320313 c -0.01501,0.940773 1.4367,1.801586 2.29883,0.939453 l 22.92968,-22.929687 c 0.16385,-0.163848 0.24319,0.696979 0.24024,0.47734 z"
     style="fill:url(#linearGradient2360);fill-opacity:1;fill-rule:evenodd;stroke:none;stroke-width:4.6329999;stroke-linecap:round;stroke-linejoin:round;stroke-miterlimit:4;stroke-dasharray:none;stroke-opacity:1"
     sodipodi:nodetypes="csssccccscscccccccccsc" />
  <path
     sodipodi:nodetypes="csssccccscscccccccccsc"
     style="fill:url(#linearGradient884);fill-opacity:1;fill-rule:evenodd;stroke:none;stroke-width:4.6329999;stroke-linecap:round;stroke-linejoin:round;stroke-miterlimit:4;stroke-dasharray:none;stroke-opacity:1"
     d="m 66.373581,124.37914 c 0.219639,-0.003 0.441178,-0.0896 0.611328,-0.25977 l 23.257812,-23.2578 c 0.741828,-0.74183 0.154145,-1.95117 -0.708984,-1.95117 H 75.6353 V 65.508056 61.3479 34.91037 h 13.898437 c 0.863129,0 1.450812,-1.20935 0.708984,-1.95117 L 66.984909,9.7013797 c -0.3403,-0.3403 0.193708,-0.34722 -0.133988,-0.0195 L 43.921234,32.61157 c -0.862133,0.86213 -0.0013,2.313835 0.939453,2.29883 H 58.181 V 61.3479 65.508056 98.9104 H 44.860687 c -0.940773,-0.01501 -1.801586,1.43669 -0.939453,2.29882 l 22.929687,22.92968 c 0.163848,0.16385 -0.696979,0.24319 -0.47734,0.24024 z"
     id="path880"
     inkscape:connector-curvature="0" />
</svg>
